X:1
T:Ce fai tu
T:Ce fai tu 
T:Gio.Girolamo Kapsperger
C:Gio.Girolamo Kapsperger
%%score [ 1 2 ] { ( 3 5 ) | 4 }
L:1/8
Q:1/4=120
M:4/4
K:F
V:1 treble nm="Soprano 1" snm="S 1"
V:2 treble nm="Soprano 2" snm="S 2"
V:3 treble nm="BC" snm="BC"
V:5 treble 
V:4 bass 
V:1
 z8 | dc BA G4 | c3 B A4 | G8 :: A2 B2 cBAG | A2 BA GF GA | F4 c2 d2 | _edcB edcB | c3 d B2 B2 | %9
w: |Che _ di _ tu|vi- ta mi-|a?|Per quai piag- * * *|* ge'a * co- * glier _|fior mo- v'i|pas- * * * si'o _ _ _|per qual vi- a,|
w: ||||Che fai tu _ _ _|_ lon- * tan _ da _|me, che fai|tu _ _ _ chi _ _ _|ti des- vi- a,|
w: ||||Co- me'in Ciel _ _ _|_ lam- * p'o _ ba- *|len, mo- vi|rat- * * * * t'a- * *|ni- ma mi- a,|
w: ||||Sen- za te _ _ _|_ star' _ piu _ non _|so, ne piu|so _ _ _ quel _ _ _|ch'io mi- si- a,|
 A2 B2 cBAG | A3 B B3 c | d4 c2 c2 | dBcd _e3 e | d3 d c2 c2 | z8 | dc BA B4 | c3 B A4 | G8 :| %18
w: do- ve spie- * * *|* ghi quel fin|or', ond' i|lac- * * * * ci'A-|mor' or- di- a,||che _ di _ tu|vi- ta mi-|a.?|
w: tor- na, tor- * * *|* n'ahi vol- g'il|pie, tor- na|mia _ _ _ _ com'|e- ri pri- a,|||||
w: cor- ri, cor- * * *|* r'in que- sto|sen, tut- ta|bel- * * * * la'e|tut- ta pi- a,|||||
w: ma- so ben _ _ _|_ ch'io mi mor-|ro, di do-|lor' _ _ _ _ di|ge- lo- si- a,|||||
V:2
 GA Bc A4 | z8 | A3 G G2 ^F2 | G8 :: F2 G2 AGFE | F2 GF ED E2 | F4 A2 B2 | cBAG edcB | A3 B B2 B2 | %9
w: Che _ fai _ tu,||vi- ta mi- *|a?|Per quai piag- * * *|* ge'a _ co- * glier|fior mo- v'i|pas- * * * si'o- * * *|per qual vi- a,|
w: ||||Che fai tu _ _ _|_ lon- * tan _ da|me, che fai|tu _ _ _ chi _ _ _|ti des- vi- a,|
w: ||||Co- me'in Ciel _ _ _|_ lam- * p'o * ba-|len, mo- vi|rat- * * * t'a- * * *|ni- ma mi- a,|
w: ||||Sen- za te _ _ _|_ star' * piu * non|so, ne piu|so _ _ _ quel _ _ _|ch'io mi si- a;|
 F2 G2 AGFE | F3 G G3 G | ^F4 A2 A2 | BGAB c3 c | c3 =B c2 c2 | GA Bc A4 | BA G^F G4 | %16
w: do- ve spie- * * *|* ghi quel fin|or', ond' i|lac- * * * * ci'A-|mor' or- di- a,|che * fai _ tu,|che _ di _ tu|
w: tor- na, tor- * * *|* n'ahi vol- g'il|pie, tor- na|mia _ _ _ _ com'|e- ri pri- a,|||
w: cor- ri, cor- * * *|* r'in que- sto|sen, tut- ta|bel- * * * * la'e|tut- ta pi- a,|||
w: ma so ben _ _ _|_ ch'io mi mor-|ro, di do-|lor' _ _ _ _ di|ge- lo- si- a,|||
 A3 G G2 ^F2 | G8 :| %18
w: vi- ta mi- *|a.?|
w: ||
w: ||
w: ||
V:3
 [DB]4 G2 ^F2 | [Bd]4 [GB]4 | c4 d4 | [=Bd]8 :: [FAc]8 | [FA]2 [DFB]2 [DFA]2 [EGc]2 | %6
 [FAc]4 [CA]2 [FB]2 | [_EGc]2 [FA]2 [GB]2 [Fd]2 | [FAc]4 [DFB]4 | [FAc]8 | [FA]2 [FA]2 [GB]4 | %11
 [^FAd]4 [Ac]4 | [DFB]4 [Gc]2 [FA]2 | c2 =B2 [Gc]4 | [GBd]4 [^FA]4 |"^-natural" [DF]4 [_EGB]4 | %16
 c4 d4 | [DG=B]8 :| %18
V:4
 G,,4 [D,A,]4 | B,,4 _E,4 | C,4 D,4 | G,,8 :: F,4 F,4- | F,2 B,,2 D,2 C,2 | F,,4 F,2 D,2 | %7
 C,2 D,2 _E,2 B,,2 | F,4 B,,4 | F,4 F,4 | F,2 D,2 _E,4 |"^-natural" D,4 F,4 | B,4 _E,2 F,2 | %13
 G,4 C,4 | G,4 D,4 | B,,4 _E,4 | C,4 [D,A,]4 | G,,8 :| %18
V:5
 x8 | G2 F2 _E4 | A2 G4 ^F2 | G8 :: x8 | x8 | x8 | x8 | x8 | x8 | x8 | x8 | x8 | [DG]4 E4 | x8 | %15
 x8 | [_EA]2 G4 ^F2 | x8 :| %18

